P3
8 8
255
104 72 48  117 80 52  110 75 49  125 86 56  113 77 50  121 83 54  108 73 48  119 81 53
111 76 50  126 87 57  116 79 52  123 84 55  109 74 49  120 82 54  114 78 51  128 88 58
106 72 47  118 81 53  112 77 50  127 87 57  115 79 52  122 84 55  110 75 49  124 85 56
113 77 51  129 89 58  117 80 53  125 86 56  111 76 50  121 83 54  116 79 52  130 90 59
108 74 48  120 82 54  114 78 51  128 88 58  116 80 52  124 85 56  112 76 50  126 86 57
115 79 52  131 90 59  119 81 53  127 87 57  113 77 51  123 84 55  118 80 53  132 91 60
109 75 49  121 83 54  115 79 52  129 89 58  117 80 53  125 86 56  113 77 51  127 87 57
116 80 53  132 91 60  120 82 54  128 88 58  114 78 51  124 85 56  119 81 53  133 92 60
